X:200
T:Tom Jones
M:6/8
L:1/8
B:Thompson's Compleat Collection of 200 Favourite Country Dances, vol. 2 (London, 1765)
Z:Transcribed and edited by Flynn Titford-Mock, 2007
Z:abc's:AK/Fiddler's Companion
K:D
a3 g3 | fdf ecA | d2f ecA | d2f ecA | dcd ede | fef ^gfg | a2d cdB | (A3 A3) :|
|: D2F E2G | F2A EFG | F2d AB=c | {d}(B3 B2)F | GFG AGA | BAB ^cBc | d2G FGE | D3 D3 :|
